X: 5
T: Cat Rambles To The Child's Saucepan, The
Z: JACKB
S: https://thesession.org/tunes/365#setting51015
R: slide
M: 12/8
L: 1/8
K: Dmaj
A|:d2e f2e dcd BAB|g2 A cBA e2 A cBA|
d2e f2e dcd BAB|g2 A cBA d3 d2 A:|
|:d2 ef2 a baf a2 f|e2 A cBA e2A cBA|
d2 ef2 a baf a2 f|e2 A cBA d3 d2 A:|

